X:1
T:The Shanty Boy and the Farmer
M:4/4
L:1/8
K:G
 D2| G3 A B2D-E| =F3 ED-C B,2| C2 D2 G2 F2| G4 z2|G-A| B2 G2 B2 c2|\
 d3 B c2 dd| G2 GG =F2 E2| D4 z2|G-A| B2 G2 B2 c2| d3- B c2 d2| G G2 G =F2 E2|\
 D4 z2| z D| G3 A B2D-E| =F2 E2D-C B,B,| CC D2 G3 F| G4 z2||
